build/svg/cmd/lc_paste.svg

<?xml version="1.0" encoding="UTF-8" standalone="no"?>
<svg
   xmlns:dc="http://purl.org/dc/elements/1.1/"
   xmlns:cc="http://creativecommons.org/ns#"
   xmlns:rdf="http://www.w3.org/1999/02/22-rdf-syntax-ns#"
   xmlns:svg="http://www.w3.org/2000/svg"
   xmlns="http://www.w3.org/2000/svg"
   xmlns:sodipodi="http://sodipodi.sourceforge.net/DTD/sodipodi-0.dtd"
   xmlns:inkscape="http://www.inkscape.org/namespaces/inkscape"
   height="24"
   width="24"
   version="1.1"
   id="svg4"
   sodipodi:docname="lc_paste.svg"
   inkscape:export-filename="/home/jupiter007/Libreoffice yaru theme fullcolor/build/cmd/lc_paste.png"
   inkscape:export-xdpi="95"
   inkscape:export-ydpi="95"
   inkscape:version="0.92.5 (2060ec1f9f, 2020-04-08)">
  <metadata
     id="metadata10">
    <rdf:RDF>
      <cc:Work
         rdf:about="">
        <dc:format>image/svg+xml</dc:format>
        <dc:type
           rdf:resource="http://purl.org/dc/dcmitype/StillImage" />
        <dc:title />
      </cc:Work>
    </rdf:RDF>
  </metadata>
  <defs
     id="defs8" />
  <sodipodi:namedview
     pagecolor="#ffffff"
     bordercolor="#666666"
     borderopacity="1"
     objecttolerance="10"
     gridtolerance="10"
     guidetolerance="10"
     inkscape:pageopacity="0"
     inkscape:pageshadow="2"
     inkscape:window-width="1920"
     inkscape:window-height="1011"
     id="namedview6"
     showgrid="true"
     inkscape:snap-page="true"
     fit-margin-top="3"
     fit-margin-right="3"
     fit-margin-bottom="3"
     fit-margin-left="3"
     inkscape:zoom="20.85965"
     inkscape:cx="-0.55972947"
     inkscape:cy="13.903738"
     inkscape:window-x="0"
     inkscape:window-y="32"
     inkscape:window-maximized="1"
     inkscape:current-layer="svg4">
    <inkscape:grid
       type="xygrid"
       id="grid817"
       originx="3"
       originy="3" />
  </sodipodi:namedview>
  <path
     inkscape:connector-curvature="0"
     style="opacity:0.6;vector-effect:none;fill:#000000;fill-opacity:1;stroke:none;stroke-width:2;stroke-linecap:round;stroke-linejoin:round;stroke-miterlimit:4;stroke-dasharray:none;stroke-dashoffset:0;stroke-opacity:1"
     d="M 8,2 C 7.446,2 7,2.446 7,3 H 5 C 3.892,3 2.9958189,3.8920079 3,5 l 0.033898,8.983051 c 0.00418,1.107992 0.892,2 2,2 L 9,16 v -4 c 0,-1.108 0.8920098,-1.995345 2,-2 L 15.033898,9.9830508 15,5 C 14.992463,3.8920256 14.108,3 13,3 H 11 C 11,2.446 10.554,2 10,2 Z"
     id="rect9566"
     sodipodi:nodetypes="scsssscsscsscss" />
  <rect
     style="opacity:1;vector-effect:none;fill:#cccccc;fill-opacity:1;stroke:none;stroke-width:2;stroke-linecap:round;stroke-linejoin:round;stroke-miterlimit:4;stroke-dasharray:none;stroke-dashoffset:0;stroke-opacity:1"
     id="rect873-1"
     width="10"
     height="11"
     x="4"
     y="4"
     ry="1"
     rx="1" />
  <rect
     style="opacity:1;vector-effect:none;fill:#cccccc;fill-opacity:1;stroke:none;stroke-width:2;stroke-linecap:round;stroke-linejoin:round;stroke-miterlimit:4;stroke-dasharray:none;stroke-dashoffset:0;stroke-opacity:1"
     id="rect9574"
     width="2"
     height="2"
     x="9"
     y="4" />
  <path
     style="opacity:1;vector-effect:none;fill:#ffffff;fill-opacity:1;stroke:none;stroke-width:2;stroke-linecap:round;stroke-linejoin:round;stroke-miterlimit:4;stroke-dasharray:none;stroke-dashoffset:0;stroke-opacity:1"
     d="M 8,3 V 4 H 7 v 1 h 4 V 4 H 10 V 3 Z"
     id="rect9576"
     inkscape:connector-curvature="0"
     sodipodi:nodetypes="ccccccccc" />
  <rect
     style="opacity:0.6;vector-effect:none;fill:#000000;fill-opacity:1;stroke:none;stroke-width:2;stroke-linecap:round;stroke-linejoin:round;stroke-miterlimit:4;stroke-dasharray:none;stroke-dashoffset:0;stroke-opacity:1"
     id="rect899"
     width="12"
     height="13"
     x="8"
     y="8"
     ry="2"
     rx="2" />
  <rect
     style="opacity:1;vector-effect:none;fill:#ffffff;fill-opacity:1;stroke:none;stroke-width:2;stroke-linecap:round;stroke-linejoin:round;stroke-miterlimit:4;stroke-dasharray:none;stroke-dashoffset:0;stroke-opacity:1"
     id="rect873"
     width="10"
     height="11"
     x="9"
     y="9"
     ry="1"
     rx="1" />
  <rect
     style="opacity:1;vector-effect:none;fill:#a7a7f1;fill-opacity:1;stroke:none;stroke-width:2;stroke-linecap:round;stroke-linejoin:round;stroke-miterlimit:4;stroke-dasharray:none;stroke-dashoffset:0;stroke-opacity:1"
     id="rect912"
     width="6"
     height="1"
     x="11"
     y="11" />
  <rect
     style="opacity:1;vector-effect:none;fill:#a7a7f1;fill-opacity:1;stroke:none;stroke-width:2;stroke-linecap:round;stroke-linejoin:round;stroke-miterlimit:4;stroke-dasharray:none;stroke-dashoffset:0;stroke-opacity:1"
     id="rect914"
     width="6"
     height="1"
     x="11"
     y="13" />
  <rect
     style="opacity:1;vector-effect:none;fill:#a7a7f1;fill-opacity:1;stroke:none;stroke-width:2;stroke-linecap:round;stroke-linejoin:round;stroke-miterlimit:4;stroke-dasharray:none;stroke-dashoffset:0;stroke-opacity:1"
     id="rect916"
     width="3"
     height="1"
     x="11"
     y="15" />
</svg>

<svg xmlns="http://www.w3.org/2000/svg" height="24" width="24"><path d="M8 2c-.554 0-1 .446-1 1H5a1.993 1.993 0 00-2 2l.034 8.983c.004 1.108.892 2 2 2L9 16v-4c0-1.108.892-1.995 2-2l4.034-.017L15 5a2 2 0 00-2-2h-2c0-.554-.446-1-1-1z" opacity=".6"/><rect width="10" height="11" x="4" y="4" ry="1" rx="1" fill="#ccc"/><path fill="#ccc" d="M9 4h2v2H9z"/><path d="M8 3v1H7v1h4V4h-1V3z" fill="#fff"/><rect width="12" height="13" x="8" y="8" ry="2" rx="2" opacity=".6"/><rect width="10" height="11" x="9" y="9" ry="1" rx="1" fill="#fff"/><path fill="#a7a7f1" d="M11 11h6v1h-6zM11 13h6v1h-6zM11 15h3v1h-3z"/></svg>
